X:1
T:A Major Jacob French, 1789
T:Isaac Watts, 1709 (Hymn 158, Book 2)   88. 88. (L. M.)
T:Baggaduce
T:Transcribed from The American Harmony, 1793
%%score [ 1 2 3 4 ]
L:1/8
Q:1/4=150
M:3/2
K:A
V:1 treble nm="Treble" snm="Tr."
V:2 treble nm="Counter" snm="C."
V:3 treble-8 nm="Tenor" snm="T."
V:4 bass nm="Bass" snm="B."
V:1
 (A3 G A4) B2 c2 | (d3 c B4) e4 | (f2 e2 d2 c2) B4 | c8 z4 |[M:2/2] E4 (ABAB | cdcd efed | c4) B4 | %7
w: 1.~Broad * * is the|road * * that|leads * * * to|death,|And thou- * * *||* sands|
 c2 B2 !wedge!c2 !wedge!c2 | !wedge!c6 z2 | B4 A2 B2 | cd e2 A2 A2 | G6 G2 | A2 c2 B2 B2 | %13
w: walk to- ge- ther|there;|But wis- dom|shows * a nar- row|path, with|here and there a|
 !wedge!c2 !wedge!c2 !wedge!c2 B2 | A2 A2 A2 A2 | !wedge!G2 !wedge!G2 !wedge!G2 G2 | A2 B2 c2 B2 | %17
w: tra- ve- ler, with|here and there a|tra- ve- ler, with|here and there a|
 !wedge!B2 !wedge!B2 !wedge!B2 B2 | c2 B2 A2 B2 | !wedge!c2 !wedge!c2 !wedge!c4 |] %20
w: tra- ve- ler, with|here and there a|tra- ve- ler.|
V:2
 (E4 F2 E2) F2 F2 | (F4 E2 F2) (GA G2) | F8 E4 | E8 E4 |[M:2/2] (A,B,A,B, CDCD | E4) E4 | A4 G4 | %7
w: 2.~The * * fear- ful|soul * * that * *|tires and|faints, And|walks~~ * * * * * * *|* the|(~walks the~)|
 A2 G2 !wedge!A2 !wedge!A2 | !wedge!A6 z2 | E4 E2 E2 | F2 G2 AG F2 | E6 E2 | E2 E2 E2 E2 | %13
w: ways of God no|more,|Is but es-|teemed al- most * a|saint, And|makes his own de-|
 !wedge!E2 !wedge!E2 !wedge!E2 E2 | E2 E2 E2 E2 | !wedge!E2 !wedge!E2 !wedge!E2 E2 | E2 E2 AG F2 | %17
w: struc- tion sure, and|makes his own de-|struc- tion sure, and|makes his own * de-|
 !wedge!G2 !wedge!G2 !wedge!G2 G2 | A2 BG E2 E2 | !wedge!E2 !wedge!E2 !wedge!E4 |] %20
w: struc- tion sure, and|maked his * own de-|struc- tion sure.|
V:3
 (c3 B A4) d2 c2 | (B2 c2 B4) c4 | (d2 c2 B2 A2) G4 | A8 z4 |[M:2/2] z4 E4 | (ABAB cdcd | e4) e4 | %7
w: 3.~Lord, * * let not|all * * my|hopes * * * be|vain;|Cre-|ate~ _ _ _ _ _ _ _|_ my|
 e2 e2 !wedge!e2 !wedge!e2 | !wedge!e6 z2 | B4 c2 B2 | A2 B2 c2 dc | B6 B2 | c2 A2 B2 G2 | %13
w: heart en- tire- ly|new;|Which hy- po-|crites coould ne'er at- *|tain, Which|false a- pos- tates|
 !wedge!A2 !wedge!A2 !wedge!A2 B2 | !wedge!c2 !wedge!c2 !wedge!c2 c2 | %15
w: ne- ver knew, which|false a- pos- tates|
 !wedge!B2 !wedge!B2 !wedge!B2 B2 | cd e2 fe d2 | !wedge!e2 !wedge!e2 !wedge!e2 e2 | A2 d2 c2 B2 | %19
w: ne- ver knew, which|false * a- pos- * tates|ne- ver knew, which|false a- pos- tates|
 !wedge!A2 !wedge!A2 !wedge!A4 |] %20
w: ne- ver knew.|
V:4
 (A,4 D,2 C,2) B,,2 A,,2 | (B,,4 E,2 D,2) (C,2 A,,2) | (B,,2 C,2 D,4) E,4 | A,,8 E,4 | %4
[M:2/2] (C,D,C,B,, A,,4) | A,,4 (A,,B,,A,,B,, | C,D,C,D, E,2) E,2 | A,2 E,2 A,2 A,2 | A,6 z2 | %9
 E,4 A,2 G,2 | F,2 E,2 A,2 D,2 | E,6 E,2 | A,2 A,2 E,2 E,2 | %13
 !wedge!A,,2 !wedge!A,,2 !wedge!A,,2 E,2 | A,2 A,2 A,2 A,2 | !wedge!E,2 !wedge!E,2 !wedge!E,2 E,2 | %16
 A,2 G,2 A,2 B,2 | !wedge!E,2 !wedge!E,2 !wedge!E,2 E,2 | A,2 G,2 A,2 E,2 | %19
 !wedge!A,,2 !wedge!A,,2 !wedge!A,,4 |] %20

